X:1
T:Title
%%score [ 1 2 3 4 ]
L:1/8
Q:1/4=72
M:6/8
K:D
V:1 treble-8 nm="Tenor I"
V:2 treble-8 nm="Tenor II"
V:3 bass nm="Bass I"
V:4 bass nm="Bass II"
V:1
"^Andantino"!pp! f2 c d>cd | (e>^d)e f2 A/=d/ |!<(! f2!<)! f!>(! (fg)!>)!e | (d2 f/e/) d2 z | %4
w: Lie- be rauscht _ der|Sil- * ber- bach, Lie- be|lehrt ihn sanf- * ter|wal- * * len,|
!pp! f2 c (d>c)d | (e>^d)e f2 A/=d/ |!<(! f2!<)! f!>(! (fe)!>)!c | (e2- e/4d/4c/4d/4) c2 z | %8
w: Lie- be rauscht _ der|Sil- * ber- bach, Lie- be|lehrt ihn sanf- * ter|wal- * * * * len.|
"^cresc." e2 e e2 =f | (=c/^c<!>!d) (=c/4_B/4) !>!A3 |!pp! =f2 e (ed)^c | %11
w: See- le haucht sie|in _ _ das _ Ach!|kla- gen- rei- * cher|
"^dim." =f2 e (ed)!fermata!c |!pp! f2 c (d>c)d | (e>^d)e f2 z |!<(! f2!<)! f!>(! (fg)!>)!e | %15
w: Nach- ti- gal- * len;|Lie- be, Lie- * be|lis- * pelt nur|auf der Lau- * te|
 d2 (f/e/) d2 z |!pp! g2 e f2 d | e2 c d2 z |!ppp! z2 z z2 d | e2 c d2 z |] %20
w: der Na- * tur,|Lie- be, Lie- be|lis- pelt nur|in|der Na- tur.|
V:2
!pp! A2 _B A2 A | A2 A A2 F/A/ |!<(! d2!<)! =c!>(! B2!>)! B | (A2 ^c) d2 z |!pp! A2 _B A2 A | %5
w: Lie- be rauscht der|Sil- ber- bach, Lie- be|lehrt ihn sanf- ter|wal- * len,|Lie- be rauscht der|
 A2 A A2 F/A/ |!<(! d2!<)! ^B!>(! c2!>)! ^A | =B3 =A2 z |"^cresc." =c2 B _B2 A | !>!G2 G !>!G3 | %10
w: Sil- ber- bach, Lie- be|lehrt ihn sanf- ter|wal- len.|See- le haucht sie|in das Ach!|
!pp! (=FA)A A2 A |"^dim." A2 A A2 !fermata!A |!pp! A2 _B A2 A | A2 A A2 z | %14
w: kla- * gen- rei- cher|Nach- ti- gal- len;|Lie- be, Lie- be|lis- pelt nur|
!<(! d2!<)! =c!>(! B2!>)! B | A2 ^c d2 z |!pp! e2 A d2 F | B2 (A/G/) F2 z |!ppp! z2 z z2 F | %19
w: auf der Lau- te|der Na- tur,|Lie- be, Lie- be|lis- pelt _ nur|in|
 B2 (A/G/) F2 z |] %20
w: der Na- * tur.|
V:3
!pp! A,2 G, F,2 F, | G,2 G, F,2 z |!<(! A,2!<)! A,!>(! (G,D,)!>)!E, | (F,2 A,/G,/) F,2 z | %4
w: Lie- be rauscht der|Sil- ber- bach,|lehrt ihn sanf- * ter|wal- * * len,|
!pp! A,2 G, F,2 F, | G,2 G, F,2 z |!<(! F,2!<)! A,!>(! A,2!>)! E, | ^G,3 A,2 z | %8
w: Lie- be rauscht der|Sil- ber- bach,|lehrt ihn sanf- ter|wal- len.|
"^cresc." A,2 =G, G,2 =F, | !>!E,2 E, !>!E,3 |!pp! =F,2 G, F,2 E, | %11
w: See- le haucht sie|in das Ach!|kla- gen- rei- cher|
"^dim." =F,2 G, F,2 !fermata!E, |!pp! ^F,2 G, F,2 F, | G,2 G, F,2 z | %14
w: Nach- ti- gal- len;|Lie- be, Lie- be|lis- pelt nur|
!<(! A,2!<)! A,!>(! (G,D,)!>)!E, | F,2 (A,/G,/) F,2 z | z2 z z2!pp! B, | G,2 E, D,2 z | %18
w: auf der Lau- * te|der Na- * tur,|in|der Na- tur,|
!ppp! G,2 E, F,2 D, | E,2 E, D,2 z |] %20
w: Lie- be, Lie- be|lis- pelt nur.|
V:4
!pp! D,2 D, D,2 A,, | C,2 A,, D,2 z |!<(! D,2!<)! D,!>(! G,,2!>)! G,, | A,,3 D,2 z | %4
w: Lie- be rauscht der|Sil- ber- bach,|lehrt ihn sanf- ter|wal- len,|
!pp! D,2 D, D,2 A,, | C,2 A,, D,2 z |!<(! D,2!<)! ^D,!>(! E,2!>)! E, | E,3 A,,2 z | %8
w: Lie- be rauscht der|Sil- ber- bach,|lehrt ihn sanf- ter|wal- len.|
"^cresc." A,,2 B,, =C,2 C, | !>!=C,2 C, !>!^C,3 |!pp! D,2 C, D,2 A,, | %11
w: See- le haucht sie|in das Ach!|kla- gen- rei- cher|
"^dim." D,2 C, D,2 !fermata!A,, |!pp! D,2 D, D,2 A,, | C,2 A,, D,2 z | %14
w: Nach- ti- gal- len;|Lie- be, Lie- be|lis- pelt nur|
!<(! D,2!<)! D,!>(! G,,2!>)! G,, | A,,2 A,, D,2 z | z2 z z2!pp! B,, | G,,2 A,, D,2 z | %18
w: auf der Lau- te|der Na- tur,|in|der Na- tur,|
!ppp! E,2 A,, D,2 B,, | G,,2 A,, D,2 z |] %20
w: Lie- be, Lie- be|lis- pelt nur.|

